X:29
T:Mr. Stewart Dowally's Reel
C:Robert Petrie
S:Petrie's Collection of Strathspey Reels and Country Dances &c., 1790
Z:Steve Wyrick , 3/19/04
N:Petrie's First Collection, page 14
L:1/8
M:C|
R:Reel
K:D
  g|f2   (df) afdf|e2   (=ce) gece |f2 df      afdf|e(gfe)  d2d  :|
|:E|D/D/D FD  ADFD|D/D/D  FD  E=CCE|D/D/D (FD) ADFD|B(gTfe) d2(df)|
    D/D/D FD  ADFD|D/D/D (FD) E=CCE|DFAd       GBeg|faef    d2d  |]
